X:18915
T:Woodridge Breakdown
C:Andy De Jarlis
M:2/4
L:1/16
K:A
EGAB cAA2|efed c2A2|EF=GA B=G=G2|Bdde dBcA|!
EGAB cAA2|efed c2ef|=gefd efed|c2BG A2z2:|!
|:ea2a abaf|ea2a abaf|edef =g2=gf|=gedB =GABd|!
A2a2 abaf|ea2a a2ef|=gefd efed|c2BG A2:|!


